X: 680
T: After The Storm
R: reel
M: 4/4
K: Dmajor
|:"D"dAFA ~D2AD|dAFD "G"GABG|"D"dAFA ~D2(3Bcd|"A"edBA FABc|
"D"dAFA ~D2AD|dAFD "G"GABG|"A"ABcd ecde|1 "D"fedc d2AB:|2 fedc d2(3ABc||
|:"D"dAFA eAFA|fAeA dA(3FGA|"A"cAEA eAEA|"G"gAfA "A"eA(3GAB|
"D"dAFA eAFA|fAeA dA(3FGA|"G"dBAG "D"FGAd|1 fedc d2(3ABc:|2 fedc d2AB||

